apps/symbolic/gnome-disks-state-standby0symbolic.svg

<?xml version="1.0" encoding="UTF-8" standalone="no"?>
<svg
   xmlns:dc="http://purl.org/dc/elements/1.1/"
   xmlns:cc="http://creativecommons.org/ns#"
   xmlns:rdf="http://www.w3.org/1999/02/22-rdf-syntax-ns#"
   xmlns:svg="http://www.w3.org/2000/svg"
   xmlns="http://www.w3.org/2000/svg"
   xmlns:sodipodi="http://sodipodi.sourceforge.net/DTD/sodipodi-0.dtd"
   xmlns:inkscape="http://www.inkscape.org/namespaces/inkscape"
   version="1.1"
   width="24"
   height="24"
   viewBox="0 0 24 24"
   id="svg2"
   inkscape:version="0.92.1 r15371"
   sodipodi:docname="gnome-disks-state-standby0symbolic.svg">
  <metadata
     id="metadata10">
    <rdf:RDF>
      <cc:Work
         rdf:about="">
        <dc:format>image/svg+xml</dc:format>
        <dc:type
           rdf:resource="http://purl.org/dc/dcmitype/StillImage" />
      </cc:Work>
    </rdf:RDF>
  </metadata>
  <defs
     id="defs8" />
  <sodipodi:namedview
     pagecolor="#ffffff"
     bordercolor="#666666"
     borderopacity="1"
     objecttolerance="10"
     gridtolerance="10"
     guidetolerance="10"
     inkscape:pageopacity="0"
     inkscape:pageshadow="2"
     inkscape:window-width="640"
     inkscape:window-height="480"
     id="namedview6"
     showgrid="false"
     inkscape:zoom="25.291667"
     inkscape:cx="5.0411862"
     inkscape:cy="12"
     inkscape:current-layer="svg2" />
  <path
     d="M 21,12 H 16.090909 V 10.363637 L 18.864545,7.0909091 H 16.090909 V 5.4545455 H 21 V 7.0909091 L 18.234545,10.363637 H 21 V 12 m -6.545455,3.272728 H 9.5454545 V 13.636364 L 12.319091,10.363637 H 9.5454545 V 8.7272726 h 4.9090905 v 1.6363644 l -2.765454,3.272727 h 2.765454 v 1.636364 M 7.9090909,18.545455 H 3 V 16.909091 L 5.7736364,13.636364 H 3 V 12 h 4.9090909 v 1.636364 l -2.7654545,3.272727 h 2.7654545 z"
     id="path4"
     style="fill:#bebebe;fill-opacity:1;stroke-width:0.81818181"
     inkscape:connector-curvature="0" />
</svg>

<svg xmlns="http://www.w3.org/2000/svg" viewBox="0 0 24 24">
  <path fill="#bebebe" d="M21 12h-4.91v-1.636l2.775-3.273H16.09V5.455H21V7.09l-2.765 3.273H21V12m-6.545 3.273h-4.91v-1.637l2.774-3.272H9.545V8.727h4.91v1.637l-2.766 3.272h2.766v1.637m-6.546 3.272H3V16.91l2.774-3.273H3V12h4.91v1.636L5.143 16.91h2.765z"/>
</svg>
